X: 319
T: A Potato For Emile
R: reel
M: 4/4
K: Bminor
|:~B2dc BAFA|BBdA fgfe|dBBA BAFA|Bffb fedc|
dcBA FABc|BAFE FED2|A,B,DE FABc|dfec ABB2:|
|:d2c2 ~B2FB|[M:6/4] ABFB ABFA Bcde|fbfe dfce ~B2FB|dBFB A2ag fedc|
[M:4/4]d2c2 ~B2FB|[M:6/4] ABFB AFED EDB,2|[M:4/4] A,B,DE FABc|dfec ABB2:|

